X:1609
T:Double Kisses
O:england
M:C
R:Reel
K:C
e|\
c2G2 E2ce| c2GE dDDe| c2GE cdec| dagf ecc::\
e/f/|\
gcge gc c(e/f/)| gcge (ad d)(e/f/)|
gcge gcge| fagf ec c(e/f/)|\
gcge gc c(e/f/)| gcge ad df/g/|\
afge fdec| Aagf ecc|]


